X: 1
T: Jer O'Connell's
M: 2/4
L: 1/8
R: polka
K: Dmaj
AD F/E/D | FA de/d/ | cA AG | EF GF/G/ |
AD F/E/D | FA de/d/ | cA GE | D2 D2 :|
Ad de | fd e>d | cA AB | cd ec/B/ |
Ad de | fd e>d | cA GE | D2 D2 :|
